public/assets/DJ.svg

<svg width="210" height="274" viewBox="0 0 210 274" fill="none" xmlns="http://www.w3.org/2000/svg">
<path d="M12.832 9.83057L209.7 22.1816L201.179 266.452L21.0667 273.671L12.832 9.83057Z" fill="#2E5A9C"/>
<path d="M0.613281 0.150879L197.481 12.5019L188.96 260.897L8.84792 268.116L0.613281 0.150879Z" fill="#F87980"/>
<path d="M22.4529 38.237L22.7429 51.49L22.4529 57C24.7149 57.145 27.6439 57.261 29.5289 57.261C35.9379 57.261 39.5049 53.549 39.5049 46.85C39.5049 41.224 36.4599 38.121 30.9209 38.121L22.4529 38.237ZM30.6309 52.94C30.0219 52.94 28.9779 52.824 28.1079 52.708L28.0499 50.91L28.2529 42.761C29.0649 42.674 29.8769 42.645 30.4279 42.645C32.6319 42.645 33.4149 44.066 33.4149 48.271C33.4149 51.751 32.3419 52.94 30.6309 52.94ZM48.7792 50.823L49.0982 38.237H40.7172L40.4852 42.036L40.8042 42.413L43.2692 42.326L43.4722 51.403V53.23C43.4722 54.912 42.8052 55.84 40.8042 56.797V57.261L42.3122 60.248C47.2712 58.798 48.8372 56.971 48.8372 53.404L48.7792 50.823ZM64.9053 37.918C58.6993 37.918 55.1903 41.543 55.1903 47.778C55.1903 53.955 58.2933 57.319 64.5863 57.319C65.8623 57.319 67.2543 57.203 68.6173 56.768L69.0813 52.186L68.6173 51.896C67.5733 52.273 66.0943 52.505 65.0503 52.505C62.4983 52.505 61.3383 50.852 61.3383 47.111C61.3383 43.892 62.3533 42.645 64.6733 42.645C65.7753 42.645 67.2253 42.993 68.2403 43.544L68.6173 43.312L69.6033 38.701C68.2113 38.208 66.6453 37.918 64.9053 37.918ZM82.7018 52.65L82.3828 52.244H76.8438L76.7858 50.91L77.1048 38.237H71.1888L71.4788 51.49L71.1888 57H82.3538L82.7018 52.65ZM91.8587 37.889C85.8847 37.889 82.4627 41.543 82.4627 47.952C82.4627 53.926 85.5657 57.348 91.0177 57.348C96.9917 57.348 100.414 53.636 100.414 47.14C100.414 41.253 97.3107 37.889 91.8587 37.889ZM91.3367 42.529C93.6857 42.529 94.3237 43.718 94.3237 48.387C94.3237 52.099 93.7147 53.056 91.5397 53.056C89.1907 53.056 88.5527 51.867 88.5527 47.169C88.5527 43.486 89.1617 42.529 91.3367 42.529ZM115.909 52.36L111.095 52.534H108.311L108.253 50.91L108.282 49.808H110.892L114.256 49.895L114.604 45.661L114.285 45.255L111.269 45.342H108.398L108.456 42.703H111.443L116.054 42.877L116.431 38.643L116.112 38.237H102.656L102.946 51.49L102.656 57H115.88L116.228 52.766L115.909 52.36ZM130.699 49.605C132.671 48.213 133.831 46.212 133.831 44.008C133.831 40.267 131.453 38.208 127.248 38.208L118.345 38.237L118.635 51.49L118.345 57H124.174L123.971 51.403H125.914C126.697 53.259 127.567 55.086 128.408 56.884L128.959 57.348C130.96 57.232 132.903 56.855 134.788 56.275L134.875 55.637C133.396 53.665 132.004 51.635 130.699 49.605ZM127.712 44.588C127.712 45.98 127.248 46.792 126.146 47.285L124.029 47.169L124.145 42.326L125.189 42.239C126.958 42.326 127.712 43.022 127.712 44.588ZM153.083 38.237H146.935L145.949 40.267L142.353 46.067L142.556 38.237H136.64L136.93 51.49L136.64 57H142.469L142.237 50.91L142.295 48.387C143.861 51.316 145.485 54.158 147.138 57L147.776 57.348C149.719 57.174 151.633 56.855 153.576 56.42L153.663 55.782C151.517 52.969 149.458 50.069 147.573 47.111L153.083 38.237ZM160.447 50.91L160.766 38.237H154.85L155.14 51.49L154.85 57H160.679L160.447 50.91ZM177.591 52.36L172.777 52.534H169.993L169.935 50.91L169.964 49.808H172.574L175.938 49.895L176.286 45.661L175.967 45.255L172.951 45.342H170.08L170.138 42.703H173.125L177.736 42.877L178.113 38.643L177.794 38.237H164.338L164.628 51.49L164.338 57H177.562L177.91 52.766L177.591 52.36Z" fill="#2C1E25"/>
<path d="M49.483 224.601C51.563 224.601 53.2661 225.069 54.5921 226.005C55.9181 226.915 56.5811 228.202 56.5811 229.866C56.5811 230.932 56.256 232.063 55.606 233.259C54.9821 234.429 53.9161 235.768 52.4081 237.276L50.6921 238.992L50.809 239.187H53.812L57.595 238.797L57.9851 239.265L57.127 245.271L51.5111 244.959H42.541L41.137 245.076L40.786 244.803V240.201L45.778 235.911C46.844 234.949 47.637 234.156 48.157 233.532C48.703 232.908 48.976 232.375 48.976 231.933C48.976 231.335 48.521 231.036 47.611 231.036C46.909 231.036 46.116 231.218 45.232 231.582C44.348 231.92 43.503 232.388 42.697 232.986H41.878L40.591 227.058C43.815 225.42 46.779 224.601 49.483 224.601ZM74.0921 225.732L73.975 230.256H76.627L81.151 230.139L81.5801 230.685L81.1121 236.379L76.0811 236.262H73.8191V236.769L74.131 244.959H66.292L66.682 237.549L66.292 219.726H83.14L83.5691 220.272L83.062 225.966L76.822 225.732H74.0921ZM96.0366 226.512C96.3746 226.512 96.6736 226.538 96.9336 226.59V233.415L96.1926 233.649C95.8546 233.441 95.3866 233.337 94.7886 233.337C94.2166 233.337 93.6056 233.467 92.9556 233.727C92.3316 233.987 91.7466 234.351 91.2006 234.819V236.769L91.5126 244.959H83.9076L84.2586 237.549L83.9856 226.98L91.2006 226.473V229.905H91.5516C92.6696 227.643 94.1646 226.512 96.0366 226.512ZM106.692 226.083C109.084 226.083 110.93 226.577 112.23 227.565C113.53 228.527 114.18 229.918 114.18 231.738C114.18 232.258 114.128 233.636 114.024 235.872C113.92 237.848 113.868 238.953 113.868 239.187C113.868 239.473 113.907 239.681 113.985 239.811C114.089 239.941 114.232 240.006 114.414 240.006C114.596 240.006 114.817 239.967 115.077 239.889L115.545 240.279L114.882 244.179C113.92 244.855 112.711 245.245 111.255 245.349C110.501 245.297 109.825 245.037 109.227 244.569C108.655 244.101 108.213 243.438 107.901 242.58H107.628C106.484 243.906 105.184 244.842 103.728 245.388C101.752 245.362 100.166 244.816 98.9698 243.75C97.7998 242.658 97.2148 241.176 97.2148 239.304C97.2148 236.418 98.7098 234.767 101.7 234.351L107.238 233.61V233.142C107.238 232.466 107.095 231.985 106.809 231.699C106.549 231.413 106.081 231.27 105.405 231.27C103.949 231.27 102.064 231.894 99.7498 233.142L99.2818 232.83L98.4628 228.033C99.6588 227.409 100.972 226.928 102.402 226.59C103.858 226.252 105.288 226.083 106.692 226.083ZM105.015 237.237C104.651 237.289 104.378 237.432 104.196 237.666C104.04 237.874 103.962 238.199 103.962 238.641C103.962 239.681 104.443 240.201 105.405 240.201C106.029 240.201 106.64 239.993 107.238 239.577V236.925L105.015 237.237ZM128.373 244.959L128.763 234.663C128.763 233.077 128.152 232.284 126.93 232.284C126.332 232.284 125.721 232.466 125.097 232.83V236.769L125.409 244.959H117.804L118.155 237.549L117.882 226.98L125.097 226.473V229.203H125.37C126.722 227.851 128.243 226.889 129.933 226.317C131.883 226.317 133.365 226.759 134.379 227.643C135.419 228.527 135.913 229.801 135.861 231.465L135.705 236.769L135.978 244.959H128.373ZM153.331 234.702C154.553 237.198 156.204 240.201 158.284 243.711L158.245 244.491C156.555 244.829 154.176 245.141 151.108 245.427L150.328 245.037C148.794 242.229 147.494 239.33 146.428 236.34V236.769L146.74 244.959H139.135L139.486 237.549L139.213 218.088L146.779 217.581L146.467 234.273L149.431 228.735L150.25 226.551H158.011L153.331 234.702Z" fill="#2C1E25"/>
<mask id="mask0" mask-type="alpha" maskUnits="userSpaceOnUse" x="0" y="0" width="196" height="200">
<path d="M0.699219 0L195.432 12.3613L186.602 187.846L6.79921 199.693L0.699219 0Z" fill="#F87980"/>
</mask>
<g mask="url(#mask0)">
<path d="M47.5911 266.76C97.8584 266.76 138.608 226.01 138.608 175.743C138.608 125.475 97.8584 84.7258 47.5911 84.7258C-2.67612 84.7258 -43.4258 125.475 -43.4258 175.743C-43.4258 226.01 -2.67612 266.76 47.5911 266.76Z" fill="#FFF1F0"/>
<path d="M47.5961 203.941C63.1692 203.941 75.7937 191.317 75.7937 175.744C75.7937 160.171 63.1692 147.546 47.5961 147.546C32.023 147.546 19.3984 160.171 19.3984 175.744C19.3984 191.317 32.023 203.941 47.5961 203.941Z" fill="#5C404E"/>
<path d="M47.5926 178.618C49.1798 178.618 50.4665 177.331 50.4665 175.744C50.4665 174.157 49.1798 172.87 47.5926 172.87C46.0054 172.87 44.7188 174.157 44.7188 175.744C44.7188 177.331 46.0054 178.618 47.5926 178.618Z" fill="#FFF1F0"/>
</g>
<path d="M4.14062 199.553L197.399 185.962V197.536L4.45279 210.775L4.14062 199.553Z" fill="#2E5A9C"/>
<path d="M17.5938 198.603L4.10547 199.552L4.26548 210.789L18.3242 209.825L17.5938 198.603Z" fill="#3F7AD3"/>
</svg>

<svg width="210" height="274" fill="none" xmlns="http://www.w3.org/2000/svg"><path d="M12.832 9.83L209.7 22.183l-8.521 244.27-180.112 7.219-8.235-263.84z" fill="#2E5A9C"/><path d="M.613.15l196.868 12.352-8.521 248.395-180.112 7.219L.613.151z" fill="#F87980"/><path d="M22.453 38.237l.29 13.253-.29 5.51c2.262.145 5.19.261 7.076.261 6.409 0 9.976-3.712 9.976-10.411 0-5.626-3.045-8.729-8.584-8.729l-8.468.116zM30.63 52.94c-.61 0-1.653-.116-2.523-.232l-.058-1.798.203-8.149a21.503 21.503 0 012.175-.116c2.204 0 2.987 1.421 2.987 5.626 0 3.48-1.073 4.669-2.784 4.669zm18.148-2.117l.32-12.586h-8.382l-.232 3.799.32.377 2.464-.087.203 9.077v1.827c0 1.682-.667 2.61-2.668 3.567v.464l1.508 2.987c4.96-1.45 6.525-3.277 6.525-6.844l-.058-2.581zm16.126-12.905c-6.206 0-9.715 3.625-9.715 9.86 0 6.177 3.103 9.541 9.396 9.541 1.276 0 2.668-.116 4.031-.551l.464-4.582-.464-.29c-1.044.377-2.523.609-3.567.609-2.552 0-3.712-1.653-3.712-5.394 0-3.219 1.015-4.466 3.335-4.466 1.102 0 2.552.348 3.567.899l.377-.232.986-4.611c-1.392-.493-2.958-.783-4.698-.783zM82.702 52.65l-.32-.406h-5.538l-.058-1.334.319-12.673h-5.916l.29 13.253-.29 5.51h11.165l.348-4.35zm9.157-14.761c-5.974 0-9.396 3.654-9.396 10.063 0 5.974 3.103 9.396 8.555 9.396 5.974 0 9.396-3.712 9.396-10.208 0-5.887-3.103-9.251-8.555-9.251zm-.522 4.64c2.349 0 2.987 1.189 2.987 5.858 0 3.712-.61 4.669-2.784 4.669-2.35 0-2.987-1.189-2.987-5.887 0-3.683.609-4.64 2.784-4.64zm24.572 9.831l-4.814.174h-2.784l-.058-1.624.029-1.102h2.61l3.364.087.348-4.234-.319-.406-3.016.087h-2.871l.058-2.639h2.987l4.611.174.377-4.234-.319-.406h-13.456l.29 13.253-.29 5.51h13.224l.348-4.234-.319-.406zm14.79-2.755c1.972-1.392 3.132-3.393 3.132-5.597 0-3.741-2.378-5.8-6.583-5.8l-8.903.029.29 13.253-.29 5.51h5.829l-.203-5.597h1.943c.783 1.856 1.653 3.683 2.494 5.481l.551.464a24.62 24.62 0 005.829-1.073l.087-.638a101.926 101.926 0 01-4.176-6.032zm-2.987-5.017c0 1.392-.464 2.204-1.566 2.697l-2.117-.116.116-4.843 1.044-.087c1.769.087 2.523.783 2.523 2.349zm25.371-6.351h-6.148l-.986 2.03-3.596 5.8.203-7.83h-5.916l.29 13.253-.29 5.51h5.829l-.232-6.09.058-2.523c1.566 2.929 3.19 5.771 4.843 8.613l.638.348a44.67 44.67 0 005.8-.928l.087-.638c-2.146-2.813-4.205-5.713-6.09-8.671l5.51-8.874zm7.364 12.673l.319-12.673h-5.916l.29 13.253-.29 5.51h5.829l-.232-6.09zm17.144 1.45l-4.814.174h-2.784l-.058-1.624.029-1.102h2.61l3.364.087.348-4.234-.319-.406-3.016.087h-2.871l.058-2.639h2.987l4.611.174.377-4.234-.319-.406h-13.456l.29 13.253-.29 5.51h13.224l.348-4.234-.319-.406zM49.483 224.601c2.08 0 3.783.468 5.11 1.404 1.325.91 1.988 2.197 1.988 3.861 0 1.066-.325 2.197-.975 3.393-.624 1.17-1.69 2.509-3.198 4.017l-1.716 1.716.117.195h3.003l3.783-.39.39.468-.858 6.006-5.616-.312h-8.97l-1.404.117-.351-.273v-4.602l4.992-4.29c1.066-.962 1.859-1.755 2.379-2.379.546-.624.819-1.157.819-1.599 0-.598-.455-.897-1.365-.897-.702 0-1.495.182-2.379.546a10.6 10.6 0 00-2.535 1.404h-.819l-1.287-5.928c3.224-1.638 6.188-2.457 8.892-2.457zm24.61 1.131l-.118 4.524h2.652l4.524-.117.43.546-.469 5.694-5.03-.117h-2.263v.507l.312 8.19h-7.839l.39-7.41-.39-17.823H83.14l.43.546-.508 5.694-6.24-.234h-2.73zm21.944.78c.338 0 .637.026.897.078v6.825l-.741.234c-.338-.208-.806-.312-1.404-.312-.572 0-1.183.13-1.833.39a6.578 6.578 0 00-1.755 1.092v1.95l.312 8.19h-7.605l.35-7.41-.272-10.569 7.215-.507v3.432h.35c1.119-2.262 2.614-3.393 4.486-3.393zm10.655-.429c2.392 0 4.238.494 5.538 1.482 1.3.962 1.95 2.353 1.95 4.173 0 .52-.052 1.898-.156 4.134-.104 1.976-.156 3.081-.156 3.315 0 .286.039.494.117.624a.52.52 0 00.429.195c.182 0 .403-.039.663-.117l.468.39-.663 3.9c-.962.676-2.171 1.066-3.627 1.17a3.626 3.626 0 01-2.028-.78c-.572-.468-1.014-1.131-1.326-1.989h-.273c-1.144 1.326-2.444 2.262-3.9 2.808-1.976-.026-3.562-.572-4.758-1.638-1.17-1.092-1.755-2.574-1.755-4.446 0-2.886 1.495-4.537 4.485-4.953l5.538-.741v-.468c0-.676-.143-1.157-.429-1.443-.26-.286-.728-.429-1.404-.429-1.456 0-3.341.624-5.655 1.872l-.468-.312-.82-4.797a16.865 16.865 0 013.94-1.443 18.932 18.932 0 014.29-.507zm-1.677 11.154c-.364.052-.637.195-.819.429-.156.208-.234.533-.234.975 0 1.04.481 1.56 1.443 1.56.624 0 1.235-.208 1.833-.624v-2.652l-2.223.312zm23.358 7.722l.39-10.296c0-1.586-.611-2.379-1.833-2.379-.598 0-1.209.182-1.833.546v3.939l.312 8.19h-7.605l.351-7.41-.273-10.569 7.215-.507v2.73h.273c1.352-1.352 2.873-2.314 4.563-2.886 1.95 0 3.432.442 4.446 1.326 1.04.884 1.534 2.158 1.482 3.822l-.156 5.304.273 8.19h-7.605zm24.958-10.257c1.222 2.496 2.873 5.499 4.953 9.009l-.039.78c-1.69.338-4.069.65-7.137.936l-.78-.39a60.478 60.478 0 01-3.9-8.697v.429l.312 8.19h-7.605l.351-7.41-.273-19.461 7.566-.507-.312 16.692 2.964-5.538.819-2.184h7.761l-4.68 8.151z" fill="#2C1E25"/><mask id="a" maskUnits="userSpaceOnUse" x="0" y="0" width="196" height="200"><path d="M.7 0l194.732 12.361-8.83 175.485L6.799 199.693.7 0z" fill="#F87980"/></mask><g mask="url(#a)"><path d="M47.591 266.76c50.267 0 91.017-40.75 91.017-91.017 0-50.268-40.75-91.017-91.017-91.017-50.267 0-91.017 40.749-91.017 91.017 0 50.267 40.75 91.017 91.017 91.017z" fill="#FFF1F0"/><path d="M47.596 203.941c15.573 0 28.198-12.624 28.198-28.197 0-15.573-12.625-28.198-28.198-28.198s-28.198 12.625-28.198 28.198 12.625 28.197 28.198 28.197z" fill="#5C404E"/><path d="M47.593 178.618a2.874 2.874 0 100-5.748 2.874 2.874 0 000 5.748z" fill="#FFF1F0"/></g><path d="M4.14 199.553L197.4 185.962v11.574L4.453 210.775l-.312-11.222z" fill="#2E5A9C"/><path d="M17.594 198.603l-13.489.949.16 11.237 14.06-.964-.731-11.222z" fill="#3F7AD3"/></svg>
